22x22/apps/distributor-logo-solus.svg

<svg xmlns="http://www.w3.org/2000/svg" width="22" height="22" version="1">
 <path style="opacity:0.2" d="M 7.40625,0.875 C 7.2510395,1.3819922 7.08412,1.8847504 6.9140625,2.3867188 A 10.000118,10.000118 0 0 0 1,11.5 10.000118,10.000118 0 0 0 1.444336,14.416016 C 1.3477489,14.589505 1.253748,14.764637 1.15625,14.9375 L 1,15.25 1.241211,15.374023 c 0.1620488,0.07523 0.3799099,0.132328 0.6347655,0.188477 A 10.000118,10.000118 0 0 0 11,21.5 10.000118,10.000118 0 0 0 20.785156,13.549805 C 21.063579,13.173616 21.287891,12.792942 21.46875,12.4375 L 21.625,12.125 21.3125,11.8125 C 21.21439,11.709187 21.108056,11.611921 20.999023,11.515625 A 10.000118,10.000118 0 0 0 21,11.5 10.000118,10.000118 0 0 0 11,1.5 10.000118,10.000118 0 0 0 8.2353515,1.8945313 C 7.844666,1.3214452 7.53203,0.912506 7.40625,0.875 Z"/>
 <path style="fill:#4c5263" d="m 21.000238,11.000132 c 0,0.965065 -0.136705,1.898201 -0.391806,2.781099 -1.204802,4.169788 -5.050464,4.08629 -9.608312,4.08629 -3.3511756,0 -6.3173447,1.48432 -8.1319036,-1.045895 -1.1759291,-1.639712 -1.8682145,-3.649757 -1.8682145,-5.821494 0,-5.5229129 4.4772052,-10.0001187 10.0001181,-10.0001186 5.522913,0 10.000118,4.4772057 10.000118,10.0001186 z"/>
 <path style="fill:#4c5263;fill-rule:evenodd" d="M 7.406328,0.3749997 C 5.9015005,5.2904965 3.677013,9.968372 1.1562515,14.437673 L 1,14.750177 1.240873,14.874304 c 0.21146,0.09817 0.489842,0.164189 0.866709,0.239565 0.3768685,0.07537 0.840457,0.150502 1.3614055,0.224925 1.0419,0.148829 2.3122465,0.294315 3.5446595,0.422364 2.464828,0.256081 4.778499,0.442818 4.778499,0.442818 l 0.393681,0.03173 -0.03021,-0.393989 c 0,0 -0.610468,-7.942266 -0.724496,-9.247239 l -0.0061,-0.070497 -0.03418,-0.062257 C 10.668362,5.307984 7.8620355,0.5108857 7.406328,0.3749997 Z m 0.3125025,1.4062669 c 1.066891,1.8768756 1.9885825,2.9410304 3.1250375,5.0000599 0.113394,1.312221 0.559847,8.0874145 0.608005,8.7134075 C 11.114749,15.467183 9.334995,15.324011 7.0832275,15.090072 5.8556485,14.962523 4.591246,14.817725 3.5645085,14.671052 3.0511415,14.597723 2.596972,14.523628 2.2400305,14.452236 2.0639175,14.417016 2.060048,14.314609 1.937511,14.281422 3.778569,11.028483 6.7030105,5.926985 7.7188305,1.7812666 Z"/>
 <path style="fill:#4c5263;fill-rule:evenodd" d="m 12.718891,7.7188375 -0.160742,0.703059 c 1.570109,1.0502355 3.066412,1.9671905 4.038133,2.9422345 0.971719,0.975047 1.427073,1.934591 1.057752,3.278232 l -0.172121,0.627148 0.611884,-0.220331 c 1.911817,-0.687883 2.820221,-2.020844 3.375198,-3.111542 L 21.625247,11.625134 21.312743,11.31263 C 20.380993,10.331411 18.941795,9.681047 17.271949,9.089018 15.602103,8.496991 13.783436,7.975539 12.718891,7.7188375 Z m 1.865038,1.242312 c 0.777102,0.2135685 1.623678,0.4664695 2.462493,0.7638645 1.52199,0.539608 2.962946,1.233445 3.777205,1.983361 -0.465587,0.858589 -1.175643,1.848865 -2.400542,2.464326 0.13133,-1.284685 -0.434743,-2.36737 -1.348893,-3.284649 C 16.39942,10.210971 15.518246,9.587248 14.583929,8.9611495 Z"/>
 <circle style="fill:#500000;fill-opacity:0" cx="11.012" cy="10.988" r="10.012"/>
 <path style="fill:#00caff" d="m 20.355469,14.286133 c -2.01907,1.432204 -4.403712,2.301339 -6.841797,2.675781 -3.398125,0.479506 -6.8594485,0.360441 -10.2695314,0.09961 -0.025018,0.0591 -0.041327,0.116856 -0.05957,0.174805 a 10.000118,10.000118 0 0 0 7.7167964,3.758789 c 0.0863,-2.8e-4 0.174,9e-4 0.258789,-0.001 a 10.000118,10.000118 0 0 0 0.289063,-0.0098 c 0.1369,-0.0062 0.269849,-0.01563 0.401367,-0.02637 a 10.000118,10.000118 0 0 0 0.739258,-0.08984 c 0.04695,-0.0078 0.09878,-0.01293 0.144531,-0.02148 a 10.000118,10.000118 0 0 0 7.663086,-6.464822 c -0.0149,-0.03192 -0.02561,-0.06369 -0.04199,-0.0957 z"/>
 <path style="opacity:0.2;fill-rule:evenodd" d="M 7.71875,2.2817199 C 6.7028855,6.427412 3.77853,11.528826 1.9375,14.78172 l 1.6269531,0.389648 c 1.0267359,0.146673 2.2919504,0.292389 3.5195314,0.419922 2.2516095,0.23394 4.0474165,0.412852 4.3847655,0.44043 -0.04819,-0.626398 -0.511583,-7.437462 -0.625,-8.75 C 9.707295,5.2226905 8.785641,4.1585955 7.71875,2.2817199 Z M 11.625,7.59422 c 1.506037,3.102446 1.507393,6.171708 0.625,8.4375 1.242481,0.0075 3.269925,0.146841 5.46875,-0.9375 -1.807255,-4.126559 -6.093751,-7.5 -6.09375,-7.5 z m 2.96875,1.875 c 0.93459,0.626261 1.825057,1.197748 2.5,1.875 0.914085,0.917215 1.38122,2.152929 1.25,3.4375 1.224755,-0.615398 2.034409,-1.641478 2.5,-2.5 -0.814294,-0.749856 -2.228113,-1.491678 -3.75,-2.03125 -0.839165,-0.297518 -1.722638,-0.567626 -2.5,-0.78125 z m 6.132812,4.309571 c -1.512468,1.800812 -4.24275,2.781941 -7.30957,3.227538 -3.325261,0.48314 -7.272853,0.343144 -10.7216795,0.05176 a 10.000118,10.000118 0 0 0 0.5263672,0.720703 c 3.3205723,0.26036 7.0649963,0.364364 10.2919923,-0.104492 2.599244,-0.377659 5.09411,-1.129278 6.777343,-2.499024 a 10.000118,10.000118 0 0 0 0.435547,-1.396483 z"/>
 <path style="fill:#f4f4f7;fill-rule:evenodd" d="m 11.625127,7.0938305 c 1.506037,3.1024465 1.5074,6.1718125 0.625008,8.4376055 1.242481,0.0075 3.269991,0.14683 5.468816,-0.937511 -1.807255,-4.126559 -6.093825,-7.5000945 -6.093824,-7.5000945 z"/>
 <path style="fill:#f4f4f7;fill-rule:evenodd" d="M 7.7188305,1.7812666 C 6.702966,5.9269585 3.778541,11.028527 1.937511,14.281422 l 1.627304,0.389942 c 1.026736,0.146673 2.291138,0.291472 3.518719,0.419005 2.251609,0.23394 4.047992,0.413489 4.385341,0.441067 C 11.420685,14.905038 10.957285,8.0938645 10.843868,6.7813265 9.707413,4.722297 8.7857215,3.6581422 7.7188305,1.7812666 Z"/>
 <path style="fill:#f4f4f7;fill-rule:evenodd" d="m 14.593913,8.968853 c 0.93459,0.626261 1.825087,1.197771 2.50003,1.875022 0.914084,0.917215 1.381235,2.152975 1.250015,3.437546 1.224755,-0.615398 2.034438,-1.641512 2.50003,-2.500034 C 20.029694,11.03153 18.61583,10.289684 17.093943,9.750112 16.254778,9.452594 15.371275,9.182476 14.593913,8.968853 Z"/>
 <path style="opacity:0.1;fill:#f4f4f7" d="M 7.40625,0.375 C 7.2510395,0.8819922 7.08412,1.3847504 6.9140625,1.8867188 A 10.000118,10.000118 0 0 0 1,11 10.000118,10.000118 0 0 0 1.008789,11.166016 10.000118,10.000118 0 0 1 6.9140625,2.3867188 C 7.08412,1.8847504 7.2510395,1.3819922 7.40625,0.875 7.53203,0.912506 7.844666,1.3214452 8.2353515,1.8945313 A 10.000118,10.000118 0 0 1 11,1.5 a 10.000118,10.000118 0 0 1 10,10 10.000118,10.000118 0 0 1 -0.001,0.01563 c 0.109032,0.0963 0.215372,0.193562 0.313476,0.296875 l 0.145508,0.145508 c 0.0034,-0.0066 0.0074,-0.01396 0.01074,-0.02051 L 21.625,11.625 21.3125,11.3125 C 21.21439,11.209187 21.108056,11.111921 20.999023,11.015625 A 10.000118,10.000118 0 0 0 21,11 10.000118,10.000118 0 0 0 11,1 10.000118,10.000118 0 0 0 8.2353515,1.3945313 C 7.844666,0.8214451 7.53203,0.412506 7.40625,0.375 Z M 1.3564453,14.074219 C 1.2899017,14.195451 1.2241309,14.317148 1.15625,14.4375 L 1,14.75 1.2021485,14.854492 c 0.081169,-0.145865 0.1609781,-0.292608 0.2421875,-0.438476 a 10.000118,10.000118 0 0 1 -0.087891,-0.341797 z"/>
 <path style="fill:#f4f4f7;fill-rule:evenodd" d="m 20.726562,13.278321 c -1.512468,1.800812 -4.24275,2.781941 -7.30957,3.227538 -3.325261,0.48314 -7.272853,0.343144 -10.7216795,0.05176 a 10.000118,10.000118 0 0 0 0.5263672,0.720703 c 3.3205723,0.26036 7.0649963,0.364364 10.2919923,-0.104492 2.599244,-0.377659 5.09411,-1.129278 6.777343,-2.499023 a 10.000118,10.000118 0 0 0 0.435547,-1.396484 z"/>
</svg>

<svg xmlns="http://www.w3.org/2000/svg" width="22" height="22" version="1"><path style="opacity:.2" d="M7.406.875a53.76 53.76 0 0 1-.492 1.512A10 10 0 0 0 1 11.5a10 10 0 0 0 .444 2.916c-.096.174-.19.349-.288.521L1 15.25l.241.124c.162.075.38.132.635.188A10 10 0 0 0 11 21.5a10 10 0 0 0 9.785-7.95c.279-.376.503-.757.684-1.113l.156-.312-.313-.313a4.931 4.931 0 0 0-.313-.296A10 10 0 0 0 21 11.5a10 10 0 0 0-10-10 10 10 0 0 0-2.765.395c-.39-.574-.703-.982-.829-1.02z"/><path style="fill:#4c5263" d="M21 11c0 .965-.136 1.898-.392 2.781-1.204 4.17-5.05 4.087-9.608 4.087-3.351 0-6.317 1.484-8.132-1.046A9.955 9.955 0 0 1 1 11C1 5.477 5.477 1 11 1s10 4.477 10 10z"/><path style="fill:#4c5263;fill-rule:evenodd" d="M7.406.375C5.902 5.29 3.677 9.968 1.156 14.438L1 14.75l.24.124c.212.098.49.164.868.24.376.075.84.15 1.361.225 1.042.149 2.312.294 3.545.422 2.464.256 4.778.443 4.778.443l.394.032-.03-.394s-.61-7.943-.725-9.248l-.006-.07-.034-.062C10.668 5.308 7.862.51 7.406.375zm.313 1.406c1.067 1.877 1.988 2.941 3.125 5 .113 1.313.56 8.088.608 8.714-.337-.028-2.117-.171-4.369-.405a97.773 97.773 0 0 1-3.518-.419 25.283 25.283 0 0 1-1.325-.219c-.176-.035-.18-.137-.302-.17 1.84-3.254 4.765-8.355 5.78-12.5zM12.719 7.719l-.16.703c1.57 1.05 3.066 1.967 4.037 2.942.972.975 1.427 1.935 1.058 3.278l-.172.628.612-.22c1.912-.689 2.82-2.022 3.375-3.112l.156-.313-.312-.312c-.932-.982-2.371-1.632-4.041-2.224a50.823 50.823 0 0 0-4.553-1.37zm1.865 1.242c.777.214 1.624.467 2.462.764 1.522.54 2.963 1.233 3.778 1.983-.466.859-1.176 1.85-2.4 2.465.13-1.285-.436-2.368-1.35-3.285-.675-.677-1.556-1.3-2.49-1.927z"/><circle style="fill:#500000;fill-opacity:0" cx="11.012" cy="10.988" r="10.012"/><path style="fill:#00caff" d="M20.355 14.286c-2.019 1.432-4.403 2.301-6.841 2.676-3.398.48-6.86.36-10.27.1-.025.059-.041.116-.06.174a10 10 0 0 0 7.717 3.76c.087-.001.174 0 .26-.002a10 10 0 0 0 .288-.01c.137-.006.27-.015.402-.026a10 10 0 0 0 .739-.09c.047-.008.099-.013.144-.021a10 10 0 0 0 7.663-6.465c-.014-.032-.025-.064-.042-.096z"/><path style="opacity:.2;fill-rule:evenodd" d="M7.719 2.282c-1.016 4.145-3.94 9.247-5.782 12.5l1.627.39c1.027.146 2.292.292 3.52.42 2.252.233 4.047.412 4.385.44-.048-.627-.512-7.438-.625-8.75-1.137-2.06-2.058-3.123-3.125-5zm3.906 5.312c1.506 3.103 1.507 6.172.625 8.438 1.242.007 3.27.147 5.469-.938-1.808-4.126-6.094-7.5-6.094-7.5zm2.969 1.875c.934.626 1.825 1.198 2.5 1.875.914.917 1.381 2.153 1.25 3.438 1.225-.616 2.034-1.642 2.5-2.5-.815-.75-2.228-1.492-3.75-2.032a37.089 37.089 0 0 0-2.5-.78zm6.133 4.31c-1.513 1.8-4.243 2.782-7.31 3.227-3.325.483-7.273.343-10.722.052a10 10 0 0 0 .527.72c3.32.261 7.065.365 10.292-.104 2.599-.377 5.094-1.129 6.777-2.499a10 10 0 0 0 .436-1.396z"/><path style="fill:#f4f4f7;fill-rule:evenodd" d="M11.625 7.094c1.506 3.102 1.508 6.172.625 8.437 1.243.008 3.27.147 5.469-.937-1.807-4.127-6.094-7.5-6.094-7.5zM7.719 1.781c-1.016 4.146-3.94 9.248-5.781 12.5l1.627.39c1.027.147 2.291.292 3.519.42 2.251.233 4.048.413 4.385.44-.048-.626-.512-7.437-.625-8.75-1.137-2.059-2.058-3.123-3.125-5zM14.594 8.969c.935.626 1.825 1.198 2.5 1.875.914.917 1.381 2.153 1.25 3.437 1.225-.615 2.034-1.641 2.5-2.5-.814-.75-2.228-1.491-3.75-2.03a37.089 37.089 0 0 0-2.5-.782z"/><path style="opacity:.1;fill:#f4f4f7" d="M7.406.375a53.76 53.76 0 0 1-.492 1.512A10 10 0 0 0 1 11a10 10 0 0 0 .009.166 10 10 0 0 1 5.905-8.78c.17-.501.337-1.004.492-1.511.126.038.439.446.83 1.02A10 10 0 0 1 11 1.5a10 10 0 0 1 10 10 10 10 0 0 1-.001.016c.109.096.215.193.313.297l.146.145.01-.02.157-.313-.313-.313a4.931 4.931 0 0 0-.313-.296A10 10 0 0 0 21 11 10 10 0 0 0 11 1a10 10 0 0 0-2.765.395C7.845.82 7.532.413 7.406.375zm-6.05 13.7c-.066.12-.132.242-.2.363L1 14.75l.202.104.242-.438a10 10 0 0 1-.088-.342z"/><path style="fill:#f4f4f7;fill-rule:evenodd" d="M20.727 13.278c-1.513 1.801-4.243 2.782-7.31 3.228-3.325.483-7.273.343-10.722.052a10 10 0 0 0 .527.72c3.32.26 7.065.365 10.292-.104 2.599-.378 5.094-1.13 6.777-2.5a10 10 0 0 0 .436-1.396z"/></svg>
